X: 17192
T: Henry Cave's
R: hornpipe
M: 4/4
K: Gmajor
GABc d2gf|g2ec BdBG|FGAB c2ed|cBAG FA(3DEF|
GABc d2gf|g2ec BdBG|FGAB cecA|1 G2F2 G2 (3DEF:|2 G2F2 GABc||
|:d2ed d2ed|d2ga bgdB|c2dc c2dc|c2ag fedc|
d2ed d2ed|d2ga bgaf|gdec dBcA|1 GBAF GABc:|2 GBAF G2(3DEF||

